brandFactory_export/2.Regular/Conferencia_2Regular.svg

<?xml version="1.0" encoding="UTF-8"?>
<svg width="24px" height="24px" viewBox="0 0 24 24" version="1.1" xmlns="http://www.w3.org/2000/svg" xmlns:xlink="http://www.w3.org/1999/xlink">
    <title>2.Regular/Conferencia_2Regular</title>
    <g id="Symbols" stroke="none" stroke-width="1" fill="none" fill-rule="evenodd">
        <g id="2.Regular/Conferencia_2Regular" fill="#5CB615" fill-rule="nonzero">
            <path d="M18.3327731,7.6605042 L16.5579832,7.6605042 C16.5411765,7.6605042 16.5210084,7.65378151 16.5042017,7.65378151 L3.22352941,7.65378151 C3.20672269,7.65378151 3.18991597,7.6605042 3.1697479,7.6605042 L1.39159664,7.6605042 L1.39159664,6.35630252 L18.3327731,6.35630252 L18.3327731,7.6605042 L18.3327731,7.6605042 Z M16.5008403,10.2857143 L13.7983193,10.2857143 C13.7781513,10.2857143 13.7613445,10.2789916 13.7445378,10.2789916 L5.97983193,10.2789916 C5.96302521,10.2789916 5.94621849,10.2857143 5.92605042,10.2857143 L3.22016807,10.2857143 L3.22016807,9.13277311 L16.5008403,9.13277311 L16.5008403,10.2857143 Z M5.97983193,19.6504202 L13.7445378,19.6504202 L13.7445378,11.7613445 L5.97983193,11.7613445 L5.97983193,19.6504202 L5.97983193,19.6504202 Z M16.4739496,22.1478992 L3.24705882,22.1478992 L3.24705882,21.1260504 L5.88907563,21.1260504 C5.91932773,21.1294118 5.94621849,21.1361345 5.97647059,21.1361345 L13.7411765,21.1361345 C13.7714286,21.1361345 13.8016807,21.1294118 13.8285714,21.1260504 L16.4705882,21.1260504 L16.4705882,22.1478992 L16.4739496,22.1478992 Z M7.16302521,1.47563025 L7.61680672,1.96302521 L6.84033613,2.79663866 L6.38655462,2.3092437 L7.16302521,1.47563025 L7.16302521,1.47563025 Z M12.1142857,1.96302521 L12.5680672,1.47563025 L13.3445378,2.3092437 L12.8907563,2.79663866 L12.1142857,1.96302521 L12.1142857,1.96302521 Z M18.3327731,4.88067227 L15.2773109,4.88067227 L15.2773109,4.17478992 C15.2773109,3.97983193 15.2033613,3.79159664 15.0756303,3.65378151 L14.507563,3.04201681 C14.8168067,2.47731092 14.7697479,1.74789916 14.3159664,1.26386555 L13.5394958,0.430252101 C13.2806723,0.154621849 12.9310924,0 12.5680672,0 C12.205042,0 11.8554622,0.154621849 11.5966387,0.430252101 L11.1428571,0.917647059 C10.6084034,1.49243697 10.6084034,2.42689076 11.1428571,3.00168067 L11.9193277,3.83529412 C12.1781513,4.11428571 12.5277311,4.26890756 12.8907563,4.26890756 C13.1193277,4.26890756 13.3378151,4.20168067 13.5361345,4.08739496 L13.8991597,4.48067227 L13.8991597,4.88067227 L5.81848739,4.88067227 L5.81848739,4.48067227 L6.18487395,4.08739496 C6.38319328,4.20168067 6.60504202,4.27226891 6.83361345,4.27226891 C7.19663866,4.27226891 7.54621849,4.11764706 7.80504202,3.83865546 L8.58151261,3.00504202 C9.11932773,2.4302521 9.11932773,1.49579832 8.58151261,0.921008403 L8.12773109,0.433613445 C7.86890756,0.157983193 7.51932773,0.00336134454 7.15630252,0.00336134454 C6.79327731,0.00336134454 6.44369748,0.157983193 6.18487395,0.433613445 L5.40840336,1.26722689 C4.95798319,1.7512605 4.90756303,2.47731092 5.21680672,3.04201681 L4.64537815,3.65714286 C4.51764706,3.79495798 4.44369748,3.98319328 4.44369748,4.17815126 L4.44369748,4.88403361 L1.38823529,4.88403361 C0.628571429,4.88403361 0.0134453782,5.54621849 0.0134453782,6.35966387 L0.0134453782,7.66386555 C0.0134453782,8.48067227 0.628571429,9.1394958 1.38823529,9.1394958 L1.84537815,9.1394958 L1.84537815,10.292437 C1.84537815,11.1092437 2.4605042,11.7680672 3.22016807,11.7680672 L4.60504202,11.7680672 L4.60504202,19.6571429 L3.24705882,19.6571429 C2.48739496,19.6571429 1.87226891,20.3193277 1.87226891,21.1327731 L1.87226891,22.1546218 C1.87226891,22.9680672 2.48739496,23.6302521 3.24705882,23.6302521 L16.4739496,23.6302521 C17.2336134,23.6302521 17.8487395,22.9680672 17.8487395,22.1546218 L17.8487395,21.1327731 C17.8487395,20.3193277 17.2336134,19.6571429 16.4739496,19.6571429 L15.1159664,19.6571429 L15.1159664,11.7680672 L16.5008403,11.7680672 C17.2605042,11.7680672 17.8756303,11.1092437 17.8756303,10.292437 L17.8756303,9.1394958 L18.3327731,9.1394958 C19.092437,9.1394958 19.707563,8.48067227 19.707563,7.66386555 L19.707563,6.35966387 C19.7042017,5.54285714 19.0890756,4.88067227 18.3327731,4.88067227 L18.3327731,4.88067227 Z" id="Conferencia_2Regular"></path>
        </g>
    </g>
</svg>

<svg width="24" height="24" viewBox="0 0 24 24" xmlns="http://www.w3.org/2000/svg"><path d="M18.333 7.66h-1.775c-.017 0-.037-.006-.054-.006H3.224c-.017 0-.034.007-.054.007H1.392V6.356h16.94v1.305zM16.5 10.287h-2.703c-.02 0-.037-.007-.053-.007H5.98c-.017 0-.034.007-.054.007H3.22V9.133H16.5v1.153zM5.98 19.65h7.765v-7.889H5.98v7.89zm10.494 2.498H3.247v-1.022H5.89c.03.003.057.01.087.01h7.765c.03 0 .06-.007.088-.01h2.642v1.022h.003zM7.163 1.476l.454.487-.777.834-.453-.488.776-.833zm4.951.487l.454-.487.777.833-.454.488-.777-.834zm6.219 2.918h-3.056v-.706a.77.77 0 00-.201-.521l-.568-.612c.309-.565.262-1.294-.192-1.778L13.539.43a1.334 1.334 0 00-.97-.43c-.364 0-.714.155-.972.43l-.454.488a1.555 1.555 0 000 2.084l.776.833c.26.28.609.434.972.434.228 0 .447-.067.645-.182l.363.394v.4H5.82v-.4l.366-.394c.198.115.42.185.649.185.363 0 .712-.154.971-.433l.777-.834a1.548 1.548 0 000-2.084L8.128.434a1.334 1.334 0 00-.972-.43c-.363 0-.712.154-.971.43l-.777.833c-.45.484-.5 1.21-.191 1.775l-.572.615a.77.77 0 00-.201.521v.706H1.388c-.76 0-1.375.662-1.375 1.476v1.304c0 .817.616 1.475 1.375 1.475h.457v1.153c0 .817.616 1.476 1.375 1.476h1.385v7.89H3.247c-.76 0-1.375.661-1.375 1.475v1.022c0 .813.615 1.475 1.375 1.475h13.227c.76 0 1.375-.662 1.375-1.475v-1.022c0-.814-.615-1.476-1.375-1.476h-1.358v-7.889h1.385c.76 0 1.375-.659 1.375-1.476V9.14h.457c.76 0 1.375-.658 1.375-1.475V6.36c-.004-.817-.619-1.48-1.375-1.48z" fill="#5CB615" fill-rule="nonzero"/></svg>
